!!!SOCIAL_FUNCTION:	songs of personal narratives concerning war
!!!PDT:	1918

Specific Region: Dakotas, Minnesota, Montana, Nebraska
!!!REG: Dakotas and Montana
!!!LING_GROUP: Siouan
!!!LANG: Tone
!!!OTL@ENG: I Am Bringing Horses
!!!ONM: No. 163
**kern
*Imale
*clefF4
*k[b-e-]
*M3/4
*MM96
4d
4d
4c
=2
4B-
2B-
=3
4c
4.c
8B-
=4
16c
8.B-
4.B-
8G
=5
16B-
8.G-
2F
=6||
*M2/4
2F
=7||
*M3/4
8F
8D
2F
=8||
*M2/4
4D
8D
8D
=9||
*M3/4
4D
[2D
=10||
*M2/4
2D]
=11
8G
[8B-
4B-]
=12
4B-
4B-
=13
12d
12c
[12B-
4B-]
=14
4B-
(8B-
8G)
=15
16B-
[8.G-
4G-]
=16
4F
4F
=17
2F
=18||
*M3/4
8.F
16D
2F
=19||
*M2/4
4.D
8D
=20
4D
4D
==
*-
!!!CNT: Native American -- Sioux
!!!MRD: 1911/07//-1914///
!!!OCL: Frances Densmore
!!!YOR1: Teton Sioux Music, Bulletin 61,
!!!YOR2: Bureau of American Ethnology, Smithsonian Institution
!!!PPR: Government Printing Office
!!!PPP: Washington, D.C.
!!!PDT: 1918///
!!!ENC: Craig Stuart Sapp
!!!END: 2002/03/25/
!!!EEV: 2002/03/31/
!!!AGN: War Song/Song of Personal Narrative Concerning War
!!!MPN@@SIO: Chehu'pa
!!!MPN@ENG: Jaw
!!!TXO: Teton Sioux
!!!MLC: Standing Rock Reservation, South Dakota, United States of America
!!!ARL: 45.9/-100.7#
!!!catalog: Catalogue No. 653
!!!PPG: 392
!!!EFL: 168/245
!!!VTS: 38959148
